assets/spark/icons/StoreFill.svg

<svg viewBox="0 0 24 24" xmlns="http://www.w3.org/2000/svg">
    <path fill-rule="evenodd" clip-rule="evenodd" d="M4.85714 2C4.72116 2.00008 4.58803 2.04028 4.4734 2.11586C4.35876 2.19144 4.26738 2.29926 4.21 2.42666L2.06714 7.16277C2.01459 7.27936 1.99243 7.40811 2.00286 7.53628H2V8.9329C2 9.70503 2.32286 10.4476 2.9 10.9939C3.47429 11.5401 4.25571 11.8472 5.07 11.8472H5.49857C6.30001 11.8525 7.07445 11.5481 7.67 10.9939C7.89908 10.7775 8.09213 10.5236 8.24143 10.2424C8.42286 9.99144 8.71714 9.99291 8.88714 10.2232C9.03429 10.5052 9.23 10.7665 9.46857 10.9939C10.0443 11.5401 10.8257 11.8472 11.64 11.8472H12.4071C13.2086 11.8525 13.983 11.5481 14.5786 10.9939C14.8014 10.7813 14.9871 10.5392 15.13 10.2778C15.3171 9.97667 15.6443 9.98258 15.8157 10.2631C15.96 10.5303 16.1486 10.7769 16.3757 10.9939C16.9514 11.5401 17.7329 11.8472 18.5471 11.8472H18.93C19.7314 11.8525 20.5059 11.5481 21.1014 10.9939C21.6771 10.4476 22 9.70503 22 8.9329V7.53628H21.9971C22.0076 7.40811 21.9854 7.27936 21.9329 7.16277L19.79 2.42666C19.7326 2.29926 19.6412 2.19144 19.5266 2.11586C19.412 2.04028 19.2788 2.00008 19.1429 2H4.85714ZM4.29429 20.5237V13.6321C4.55 13.672 4.80857 13.6912 5.07 13.6912H5.49857C6.60571 13.6912 7.69429 13.3221 8.57 12.6223C9.45089 13.3196 10.5304 13.696 11.64 13.6926H12.4071C13.5129 13.6926 14.6014 13.3221 15.4771 12.6223C16.358 13.3196 17.4375 13.696 18.5471 13.6926H18.93C19.19 13.6926 19.45 13.672 19.7057 13.6321V20.5237C19.7057 20.9152 19.5552 21.2907 19.2873 21.5676C19.0194 21.8445 18.656 22 18.2771 22H12.2671V17.2255C12.2671 17.0297 12.1919 16.842 12.0579 16.7035C11.924 16.5651 11.7423 16.4873 11.5529 16.4873H8.01143C7.82199 16.4873 7.64031 16.5651 7.50635 16.7035C7.3724 16.842 7.29714 17.0297 7.29714 17.2255V22H5.72286C5.34398 22 4.98061 21.8445 4.7127 21.5676C4.4448 21.2907 4.29429 20.9152 4.29429 20.5237ZM17.4314 18.7934C17.4314 18.9892 17.3562 19.1769 17.2222 19.3154C17.0883 19.4538 16.9066 19.5316 16.7171 19.5316H15.2857C15.0963 19.5316 14.9146 19.4538 14.7806 19.3154C14.6467 19.1769 14.5714 18.9892 14.5714 18.7934C14.5714 18.5976 14.6467 18.4099 14.7806 18.2714C14.9146 18.133 15.0963 18.0552 15.2857 18.0552H16.7143C16.9037 18.0552 17.0854 18.133 17.2194 18.2714C17.3533 18.4099 17.4286 18.5976 17.4286 18.7934H17.4314Z"/>
</svg>

<svg viewBox="0 0 24 24" xmlns="http://www.w3.org/2000/svg">
  <path d="m4.86,2c-.14,0-.27.04-.38.12-.11.08-.21.18-.26.31l-2.14,4.74c-.05.12-.07.25-.06.37h0v1.4c0,.77.32,1.51.9,2.06.57.55,1.36.85,2.17.85h.43c.8,0,1.58-.3,2.17-.85.23-.22.42-.47.57-.75.18-.25.48-.25.65-.02.15.28.34.54.58.77.58.55,1.36.85,2.17.85h.77c.8,0,1.58-.3,2.17-.85.22-.21.41-.45.55-.72.19-.3.51-.3.69-.01.14.27.33.51.56.73.58.55,1.36.85,2.17.85h.38c.8,0,1.58-.3,2.17-.85.58-.55.9-1.29.9-2.06v-1.4h0c.01-.13-.01-.26-.06-.37l-2.14-4.74c-.06-.13-.15-.24-.26-.31-.11-.08-.25-.12-.38-.12H4.86Zm-.56,18.52v-6.89c.26.04.51.06.78.06h.43c1.11,0,2.2-.37,3.07-1.07.88.7,1.96,1.07,3.07,1.07h.77c1.11,0,2.19-.37,3.07-1.07.88.7,1.96,1.07,3.07,1.07h.38c.26,0,.52-.02.78-.06v6.89c0,.39-.15.77-.42,1.04s-.63.43-1.01.43h-6.01v-4.77c0-.2-.08-.38-.21-.52-.13-.14-.32-.22-.51-.22h-3.54c-.19,0-.37.08-.51.22-.13.14-.21.33-.21.52v4.77h-1.57c-.38,0-.74-.16-1.01-.43-.27-.28-.42-.65-.42-1.04Zm13.14-1.73c0,.2-.08.38-.21.52-.13.14-.32.22-.51.22h-1.43c-.19,0-.37-.08-.51-.22-.13-.14-.21-.33-.21-.52s.08-.38.21-.52c.13-.14.32-.22.51-.22h1.43c.19,0,.37.08.51.22.13.14.21.33.21.52h0Z"/>
</svg>
